contributed-vectors/chuzzle_2.svg

<?xml version="1.0" encoding="UTF-8" standalone="no"?>
<svg
   xmlns:dc="http://purl.org/dc/elements/1.1/"
   xmlns:cc="http://creativecommons.org/ns#"
   xmlns:rdf="http://www.w3.org/1999/02/22-rdf-syntax-ns#"
   xmlns:svg="http://www.w3.org/2000/svg"
   xmlns="http://www.w3.org/2000/svg"
   xmlns:sodipodi="http://sodipodi.sourceforge.net/DTD/sodipodi-0.dtd"
   xmlns:inkscape="http://www.inkscape.org/namespaces/inkscape"
   viewBox="0 0 192 192"
   version="1.1"
   id="svg16"
   sodipodi:docname="chuzzle_2.svg"
   inkscape:version="0.92.4 (5da689c313, 2019-01-14)">
  <metadata
     id="metadata20">
    <rdf:RDF>
      <cc:Work
         rdf:about="">
        <dc:format>image/svg+xml</dc:format>
        <dc:type
           rdf:resource="http://purl.org/dc/dcmitype/StillImage" />
        <dc:title></dc:title>
      </cc:Work>
    </rdf:RDF>
  </metadata>
  <sodipodi:namedview
     pagecolor="#ffffff"
     bordercolor="#666666"
     borderopacity="1"
     objecttolerance="10"
     gridtolerance="10"
     guidetolerance="10"
     inkscape:pageopacity="0"
     inkscape:pageshadow="2"
     inkscape:window-width="1920"
     inkscape:window-height="1017"
     id="namedview18"
     showgrid="true"
     inkscape:zoom="2.4583333"
     inkscape:cx="81.186574"
     inkscape:cy="130.98305"
     inkscape:window-x="-8"
     inkscape:window-y="-8"
     inkscape:window-maximized="1"
     inkscape:current-layer="svg16"
     inkscape:snap-global="true">
    <inkscape:grid
       type="xygrid"
       id="grid827"
       spacingx="4"
       spacingy="4" />
  </sodipodi:namedview>
  <defs
     id="defs4">
    <style
       id="style2">.a{fill:none;stroke:#b1b5bd;stroke-linecap:round;stroke-linejoin:round;isolation:isolate;opacity:0.63;}</style>
  </defs>
  <circle
     class="a"
     cx="96"
     cy="96"
     r="88"
     id="circle8"
     style="fill:#ff837d;stroke:none;opacity:1" />
  <path
     style="fill:#f8c18c;stroke:none;stroke-width:1px;stroke-linecap:butt;stroke-linejoin:miter;stroke-opacity:1"
     d="M 14.898438 61.863281 A 88 88 0 0 0 8.9648438 83.736328 L 96 120 L 183.94141 94.349609 A 88 88 0 0 0 179.56836 68.775391 C 178.46509 68.28706 177.28063 68 176 68 C 147.71573 68 120.28427 80 92 80 C 67.580387 80 34.002489 68.967795 14.898438 61.863281 z "
     id="path837" />
  <path
     style="fill:#f9de81;stroke:none;stroke-width:1px;stroke-linecap:butt;stroke-linejoin:miter;stroke-opacity:1"
     d="M 11.160156 73.009766 A 88 88 0 0 0 8 96 A 88 88 0 0 0 8.203125 101.70898 L 96 120 L 181.49219 116.4375 A 88 88 0 0 0 184 96 A 88 88 0 0 0 183.64453 88.671875 C 173.40788 85.120189 154.15546 80 128 80 C 115.35089 80 104.64911 92 92 92 C 60.906162 92 27.897784 80.040958 11.160156 73.009766 z "
     id="path835" />
  <path
     style="fill:#98dc9a;stroke:none;stroke-width:1px;stroke-linecap:butt;stroke-linejoin:miter;stroke-opacity:1"
     d="M 120 88 C 110.29319 88 101.57474 94.40421 92 96 C 56.396881 101.93385 23.038932 101.26436 8.1601562 100.52344 A 88 88 0 0 0 52.449219 172.39258 L 100 180 L 151.33594 164.37695 A 88 88 0 0 0 182.89258 109.20117 C 170.62868 100.9141 147.17691 88 120 88 z "
     id="path833" />
  <path
     style="fill:#728dbe;stroke:none;stroke-width:1px;stroke-linecap:butt;stroke-linejoin:miter;stroke-opacity:1"
     d="M 96 108 C 59.58121 108 34.647414 124.06039 19.332031 138.98047 A 88 88 0 0 0 96 184 A 88 88 0 0 0 175.11914 134.27148 C 160.07395 122.04994 134.42722 108 96 108 z "
     id="path831" />
  <path
     style="fill:#8c72bd;stroke:none;stroke-width:1px;stroke-linecap:butt;stroke-linejoin:miter;stroke-opacity:1"
     d="M 92 136 C 68.388731 136 48.351921 145.96096 33.050781 157.47656 A 88 88 0 0 0 96 184 A 88 88 0 0 0 156.9082 159.48047 C 139.54578 147.13955 116.9736 136 92 136 z "
     id="path839" />
  <rect
     style="opacity:1;vector-effect:none;fill:#ffffff;fill-opacity:1;fill-rule:evenodd;stroke:none;stroke-width:4;stroke-linecap:round;stroke-linejoin:round;stroke-miterlimit:4;stroke-dasharray:none;stroke-opacity:1;paint-order:stroke fill markers"
     id="rect887"
     width="40"
     height="40"
     x="56"
     y="96"
     ry="20" />
  <rect
     style="opacity:1;vector-effect:none;fill:#ffffff;fill-opacity:1;fill-rule:evenodd;stroke:none;stroke-width:4;stroke-linecap:round;stroke-linejoin:round;stroke-miterlimit:4;stroke-dasharray:none;stroke-opacity:1;paint-order:stroke fill markers"
     id="rect889"
     width="40"
     height="40"
     x="92"
     y="92"
     ry="20" />
  <rect
     style="opacity:1;vector-effect:none;fill:#71a372;fill-opacity:1;fill-rule:evenodd;stroke:none;stroke-width:4;stroke-linecap:round;stroke-linejoin:round;stroke-miterlimit:4;stroke-dasharray:none;stroke-opacity:1;paint-order:stroke fill markers"
     id="rect891"
     width="24"
     height="24"
     x="68"
     y="100"
     ry="12" />
  <rect
     style="opacity:1;vector-effect:none;fill:#71a372;fill-opacity:1;fill-rule:evenodd;stroke:none;stroke-width:4;stroke-linecap:round;stroke-linejoin:round;stroke-miterlimit:4;stroke-dasharray:none;stroke-opacity:1;paint-order:stroke fill markers"
     id="rect893"
     width="24"
     height="24"
     x="92"
     y="96"
     ry="12" />
  <rect
     style="opacity:1;vector-effect:none;fill:#56595b;fill-opacity:1;fill-rule:evenodd;stroke:none;stroke-width:3.84057236;stroke-linecap:round;stroke-linejoin:round;stroke-miterlimit:4;stroke-dasharray:none;stroke-opacity:1;paint-order:stroke fill markers"
     id="rect895"
     width="12"
     height="11.999997"
     x="74.067795"
     y="106.13559"
     ry="5.9999986" />
  <rect
     style="opacity:1;vector-effect:none;fill:#56595b;fill-opacity:1;fill-rule:evenodd;stroke:none;stroke-width:3.84057236;stroke-linecap:round;stroke-linejoin:round;stroke-miterlimit:4;stroke-dasharray:none;stroke-opacity:1;paint-order:stroke fill markers"
     id="rect895-5"
     width="12"
     height="11.999997"
     x="97.457626"
     y="101.28813"
     ry="5.9999986" />
  <rect
     style="opacity:1;vector-effect:none;fill:#ffffff;fill-opacity:1;fill-rule:evenodd;stroke:none;stroke-width:4;stroke-linecap:round;stroke-linejoin:round;stroke-miterlimit:4;stroke-dasharray:none;stroke-opacity:1;paint-order:stroke fill markers"
     id="rect912"
     width="8"
     height="8"
     x="80"
     y="104"
     ry="4" />
  <rect
     style="opacity:1;vector-effect:none;fill:#ffffff;fill-opacity:1;fill-rule:evenodd;stroke:none;stroke-width:4;stroke-linecap:round;stroke-linejoin:round;stroke-miterlimit:4;stroke-dasharray:none;stroke-opacity:1;paint-order:stroke fill markers"
     id="rect914"
     width="8"
     height="8"
     x="104"
     y="100"
     ry="4" />
</svg>

<svg xmlns="http://www.w3.org/2000/svg" viewBox="0 0 192 192"><circle cx="96" cy="96" r="88" style="fill:#ff837d;stroke:none;opacity:1;stroke-linecap:round;stroke-linejoin:round;isolation:isolate"/><path d="M14.898 61.863a88 88 0 0 0-5.933 21.873L96 120l87.941-25.65a88 88 0 0 0-4.373-25.575A8.728 8.728 0 0 0 176 68c-28.284 0-55.716 12-84 12-24.42 0-57.998-11.032-77.102-18.137z" style="fill:#f8c18c;stroke:none;stroke-width:1px;stroke-linecap:butt;stroke-linejoin:miter;stroke-opacity:1"/><path d="M11.16 73.01A88 88 0 0 0 8 96a88 88 0 0 0 .203 5.709L96 120l85.492-3.563A88 88 0 0 0 184 96a88 88 0 0 0-.355-7.328C173.408 85.12 154.155 80 128 80c-12.65 0-23.35 12-36 12-31.094 0-64.102-11.959-80.84-18.99z" style="fill:#f9de81;stroke:none;stroke-width:1px;stroke-linecap:butt;stroke-linejoin:miter;stroke-opacity:1"/><path d="M120 88c-9.707 0-18.425 6.404-28 8-35.603 5.934-68.961 5.264-83.84 4.523a88 88 0 0 0 44.29 71.87L100 180l51.336-15.623a88 88 0 0 0 31.557-55.176C170.629 100.914 147.177 88 120 88z" style="fill:#98dc9a;stroke:none;stroke-width:1px;stroke-linecap:butt;stroke-linejoin:miter;stroke-opacity:1"/><path d="M96 108c-36.419 0-61.353 16.06-76.668 30.98A88 88 0 0 0 96 184a88 88 0 0 0 79.12-49.729C160.073 122.05 134.426 108 96 108z" style="fill:#728dbe;stroke:none;stroke-width:1px;stroke-linecap:butt;stroke-linejoin:miter;stroke-opacity:1"/><path d="M92 136c-23.611 0-43.648 9.961-58.95 21.477A88 88 0 0 0 96 184a88 88 0 0 0 60.908-24.52C139.546 147.14 116.974 136 92 136z" style="fill:#8c72bd;stroke:none;stroke-width:1px;stroke-linecap:butt;stroke-linejoin:miter;stroke-opacity:1"/><rect width="40" height="40" x="56" y="96" ry="20" style="opacity:1;vector-effect:none;fill:#fff;fill-opacity:1;fill-rule:evenodd;stroke:none;stroke-width:4;stroke-linecap:round;stroke-linejoin:round;stroke-miterlimit:4;stroke-dasharray:none;stroke-opacity:1;paint-order:stroke fill markers"/><rect width="40" height="40" x="92" y="92" ry="20" style="opacity:1;vector-effect:none;fill:#fff;fill-opacity:1;fill-rule:evenodd;stroke:none;stroke-width:4;stroke-linecap:round;stroke-linejoin:round;stroke-miterlimit:4;stroke-dasharray:none;stroke-opacity:1;paint-order:stroke fill markers"/><rect width="24" height="24" x="68" y="100" ry="12" style="opacity:1;vector-effect:none;fill:#71a372;fill-opacity:1;fill-rule:evenodd;stroke:none;stroke-width:4;stroke-linecap:round;stroke-linejoin:round;stroke-miterlimit:4;stroke-dasharray:none;stroke-opacity:1;paint-order:stroke fill markers"/><rect width="24" height="24" x="92" y="96" ry="12" style="opacity:1;vector-effect:none;fill:#71a372;fill-opacity:1;fill-rule:evenodd;stroke:none;stroke-width:4;stroke-linecap:round;stroke-linejoin:round;stroke-miterlimit:4;stroke-dasharray:none;stroke-opacity:1;paint-order:stroke fill markers"/><rect width="12" height="12" x="74.068" y="106.136" ry="6" style="opacity:1;vector-effect:none;fill:#56595b;fill-opacity:1;fill-rule:evenodd;stroke:none;stroke-width:3.84057236;stroke-linecap:round;stroke-linejoin:round;stroke-miterlimit:4;stroke-dasharray:none;stroke-opacity:1;paint-order:stroke fill markers"/><rect width="12" height="12" x="97.458" y="101.288" ry="6" style="opacity:1;vector-effect:none;fill:#56595b;fill-opacity:1;fill-rule:evenodd;stroke:none;stroke-width:3.84057236;stroke-linecap:round;stroke-linejoin:round;stroke-miterlimit:4;stroke-dasharray:none;stroke-opacity:1;paint-order:stroke fill markers"/><rect width="8" height="8" x="80" y="104" ry="4" style="opacity:1;vector-effect:none;fill:#fff;fill-opacity:1;fill-rule:evenodd;stroke:none;stroke-width:4;stroke-linecap:round;stroke-linejoin:round;stroke-miterlimit:4;stroke-dasharray:none;stroke-opacity:1;paint-order:stroke fill markers"/><rect width="8" height="8" x="104" y="100" ry="4" style="opacity:1;vector-effect:none;fill:#fff;fill-opacity:1;fill-rule:evenodd;stroke:none;stroke-width:4;stroke-linecap:round;stroke-linejoin:round;stroke-miterlimit:4;stroke-dasharray:none;stroke-opacity:1;paint-order:stroke fill markers"/></svg>
